X: 1905
T: Arra Mountains, The
R: slip jig
M: 9/8
K: Adorian
|:EAA EAB cBc|EAA EAF GED|EAA EAB c2d|efe e/f/ge dBG:|
Aaa gef gfg|eaa ged Bcd|eaa gef g2e|d^cd e/f/ge dBG|
Aaa gef gfg|eaa ged Bcd|e/f/ge f/g/af g2e|d^cd e/f/ge dBG||

